!!!ONB: MCCC : IJH0467_04 : Extracted Monophonic Melody
!!!COM: Haydn, Joseph
!!!OPR: String Quartet in G minor
!!!OMV: 4
!!!SCT: Hob.III:33 ; Op.20 No.3
!!!ODT: 1772///
**kern
*thru
*k[b-e-]
*g:
*clefF
*M4/4
8a
8a
8dd
=2
16dd
16cc#
16dd
16cc#
8dd
8g
8f#
8g
8a
8b-
=3
8dd
8cc
8aa
8g
8f#
8g
8a
8b-
=4
8dd
8cc
4ccc
2r
=5
2r
8r
8a
8a
8dd
=6
16dd
16cc#
16dd
16cc#
4dd
8r
8a
8a
8dd
=7
16dd
16cc#
16dd
16cc#
8dd
8gg
16gg
16ff#
16gg
16ff#
8gg
8bb-
=8
4bb-
4cc#
4aa
8r
8cc
=9
16b-
16a
16b-
16a
8b-
8ee-
16a-
16g
16a-
16g
8a-
8cc
=10
16d
16c#
16d
16c#
8d
8f#
4G
8r
8d
=11
4b-
8a
8g
2f#
=12
4g
2r
8r
8b-
=13
4ee-
8b-
8g
4e-
4d-
=14
4c
4B-
4A
4g-
=15
2ee-
2dd
=16
2aa
2bb-
=17
2e
4f
4r
=18
2r
8r
8cc
8cc
8ff
=19
16ff
16ee
16ff
16ee
4ff
8r
8cc
8cc
8ff
=20
16ff
16ee
16ff
16ee
4ff
8r
8ff
8ff
8aa
=21
16bb-
16aa
16bb-
16aa
8bb-
8ddd
16gg
16ff#
16gg
16ff#
8gg
8bb-
=22
16cc
16b
16cc
16b
16cc
16ee-
16e-
16ee-
8e-
8gg
8gg
8gg
=23
16cc
16b
16cc
16b
16cc
16ee-
16e-
16ee-
8e-
8bb-
8bb-
8bb-
=24
2G
8e]
8d-
8c
8B-
=25
8f
8g
8a
8b-
8cc
8dd
8ee-
8ff
=26
8gg
8aa
8bb-
8ccc
8ddd
8eee-
8ccc
8aa
=27
8bb-
8ddd
8ff
8aa-
8ff#
8gg
8aa
8bb-
=28
8b
8cc
8dd
8ee-
8f
8ff
8ee-
8cc
=29
4b-
8r
8f
4gg
8ff
8ee-
=30
4dd
8r
8f
4gg
8ff
8ee-
=31
16dd
16ee-
16ff
16gg
16aa
16bb-
16ccc
16ddd
2eee-[
=32
2eee-]
2ddd[
=33
2ddd]
2ddd-
=34
2ccc
2bb-
=35
2.aa-
4ff#
=36
8gg
8ff#
8gg
8bb-
8b
8cc
8ee-
8gg
=37
2f
2cc
=38
4b-
4r
2ee-
=39
2dd
2aa
=40
2bb-
2ee-
=41
2dd
2a
=42
4b-
2r
8r
8f
=43
4ff
8ee-
8dd
2cc
=44
2dd
2ee-
=45
2dd
2ee
=46
2ff
2bb-
=47
4aa
2r
8r
8f
=48
8aa-
8gg
8ff
8ee-
4dd
4r
=49
4.r
8g
4aa-
8gg
8ff
=50
4ee-
8r
8g
4aa-
8gg
8ff
=51
4ee-
8r
8e-
4ff
8ee-
8dd-
=52
4cc
8r
8c
4dd-
8cc
8b-
=53
4a-
8r
8a-
4aa-
8ff
8dd
=54
2b
2dd
=55
2cc
2ff
=56
1ee-
=57
8aa-
8ff
8dd
8b-
8a-
8f
8d
8B-
=58
4A-
2.r
=59
2r
8r
8f
8f
8b-
=60
16b-
16a
16b-
16a
4b-
8r
8f
8f
8b-
=61
16b-
16a
16b-
16a
16b-
16ee-
16e-
16ee-
8e-
8ee-
8ee-
8ee-
=62
16b-
16a
16b-
16a
16b-
16dd-
16e
16dd-
8e
8dd-
8dd-
8dd-
=63
16cc
16b
16cc
16b
16cc
16ff
16f
16ff
8f
8ff
8ff
8ff
=64
16cc
16b
16cc
16b
16cc
16ee-
16f#
16ee-
8f#
8ee-
8ee-
8ee-
=65
16dd
16cc#
16dd
16cc#
16dd
16gg
16g
16gg
8g
8gg
8gg
8gg
=66
16dd
16cc#
16dd
16cc#
16dd
16ff
16g
16ff
8g
8ff
8ff
8ff
=67
1ee-[
=68
1ee-]
=69
1dd[
=70
4dd]
2.r
=71
2r
8r
8a
8a
8dd
=72
16dd
16cc#
16dd
16cc#
8dd
8g
8f#
8g
8a
8b-
=73
8dd
8cc
8aa
8g
8f#
8g
8a
8b-
=74
8dd
8cc
4ccc
2r
=75
2r
8r
8a
8a
8dd
=76
16dd
16cc#
16dd
16cc#
4dd
8r
8a
8a
8dd
=77
16dd
16cc#
16dd
16cc#
4dd
8r
8dd
8dd
8gg
=78
16gg
16ff#
16gg
16ff#
4gg
8r
8dd
8dd
8gg
=79
16gg
16ff#
16gg
16ff#
8gg
2r
8b-
=80
4ee-
8b-
8g
4e-
4d-
=81
2c-
2e-
=82
2d
2f
=83
2e-
2g
=84
2f#
2a
=85
16cc
16b
16cc
16b
16cc
16ee-
16e-
16ee-
8e-
8aa
8ff#
8ee-
=86
16cc
16b
16cc
16b
16cc
16ee-
16e-
16ee-
8e-
8ccc
8aa
8ff#
=87
2ee-[
8ee-]
8dd
8cc
8b-
=88
8a
8cc
8ee-
8ff#
8aa
8bb-
8ccc
8ddd
=89
8eee-
8aa
8ccc
8ff#
8aa
8ee-
8dd
8cc
=90
8b-
8ff#
8gg
8b-
8a
8ee-
8dd
8f#
=91
4g
8r
8d
4ee-
8dd
8cc
=92
4b-
8r
8d
4ee-
8dd
8cc
=93
16b-
16cc
16dd
16ee
16ff#
16gg
16aa
16bb-
2ccc[
=94
2ccc]
2bb-
=95
2aa-
2gg
=96
8r
8ff#
8gg
8aa
8bb-
8gg
8dd
8b-
=97
2d
2a
=98
4g
4r
2cc
=99
2b-
2ff#
=100
2gg
2b
=101
2cc
2f#
=102
2g
2f
=103
2e-
2c
=104
4B
2.r
==
*-
